Systematic/src/svg/LeapFrog - Leapster Learning Game System-content.svg

<svg xmlns="http://www.w3.org/2000/svg" xml:space="preserve" width="330.667" height="224"><defs><clipPath id="a" clipPathUnits="userSpaceOnUse"><path d="M0 256h256V0H0Z"/></clipPath><clipPath id="b" clipPathUnits="userSpaceOnUse"><path d="M4 212h248V44H4Z"/></clipPath></defs><g clip-path="url(#a)" transform="matrix(1.33333 0 0 -1.33333 -5.333 282.667)"><g clip-path="url(#b)" style="opacity:.5"><path d="M0 0c-52.692 0-112.03-19.577-114.53-20.411l-5.47-1.823V-168h248v145.986l-5.742 1.689C119.436-19.495 52.548 0 0 0" style="fill:#fff;fill-opacity:1;fill-rule:nonzero;stroke:none" transform="translate(124 212)"/></g><path d="M0 0c-52 0-112-20-112-20v-132h232v132S52 0 0 0" style="fill:#4b5da7;fill-opacity:1;fill-rule:nonzero;stroke:none" transform="translate(124 204)"/><path d="M0 0h120v121.898C101.753 125.174 80.171 128 60 128s-41.753-2.826-60-6.102Z" style="fill:#fff;fill-opacity:1;fill-rule:nonzero;stroke:none" transform="translate(68 64)"/><path d="M0 0v-112h-48V10.6C-20.845 5.956 0 0 0 0" style="fill:#ccc;fill-opacity:1;fill-rule:nonzero;stroke:none" transform="translate(232 176)"/><path d="M0 0v-112h48V10.6C20.845 5.956 0 0 0 0" style="fill:#ccc;fill-opacity:1;fill-rule:nonzero;stroke:none" transform="translate(24 176)"/></g></svg>

<?xml version="1.0" encoding="UTF-8" standalone="no"?>
<svg
   xmlns:dc="http://purl.org/dc/elements/1.1/"
   xmlns:cc="http://creativecommons.org/ns#"
   xmlns:rdf="http://www.w3.org/1999/02/22-rdf-syntax-ns#"
   xmlns:svg="http://www.w3.org/2000/svg"
   xmlns="http://www.w3.org/2000/svg"
   viewBox="0 0 330.66665 224"
   height="224"
   width="330.66666"
   xml:space="preserve"
   id="svg2"
   version="1.1"><metadata
     id="metadata8"><rdf:RDF><cc:Work
         rdf:about=""><dc:format>image/svg+xml</dc:format><dc:type
           rdf:resource="http://purl.org/dc/dcmitype/StillImage" /></cc:Work></rdf:RDF></metadata><defs
     id="defs6"><clipPath
       id="clipPath18"
       clipPathUnits="userSpaceOnUse"><path
         id="path16"
         d="M 0,256 H 256 V 0 H 0 Z" /></clipPath><clipPath
       id="clipPath26"
       clipPathUnits="userSpaceOnUse"><path
         id="path24"
         d="M 4,212 H 252 V 44 H 4 Z" /></clipPath></defs><g
     transform="matrix(1.3333333,0,0,-1.3333333,-5.3333332,282.66666)"
     id="g10"><g
       id="g12"><g
         clip-path="url(#clipPath18)"
         id="g14"><g
           id="g20"><g
             id="g22" /><g
             id="g34"><g
               style="opacity:0.5"
               id="g32"
               clip-path="url(#clipPath26)"><g
                 id="g30"
                 transform="translate(124,212)"><path
                   id="path28"
                   style="fill:#ffffff;fill-opacity:1;fill-rule:nonzero;stroke:none"
                   d="M 0,0 C -52.692,0 -112.03,-19.577 -114.53,-20.411 L -120,-22.234 V -28 v -132 -8 h 8 232 8 v 8 132 5.986 l -5.742,1.689 C 119.436,-19.495 52.548,0 0,0" /></g></g></g></g><g
           transform="translate(124,204)"
           id="g36"><path
             id="path38"
             style="fill:#4b5da7;fill-opacity:1;fill-rule:nonzero;stroke:none"
             d="M 0,0 C -52,0 -112,-20 -112,-20 V -152 H 120 V -20 C 120,-20 52,0 0,0" /></g><g
           transform="translate(68,64)"
           id="g40"><path
             id="path42"
             style="fill:#ffffff;fill-opacity:1;fill-rule:nonzero;stroke:none"
             d="m 0,0 h 60 60 V 121.898 C 101.753,125.174 80.171,128 60,128 39.829,128 18.247,125.174 0,121.898 Z" /></g><g
           transform="translate(232,176)"
           id="g44"><path
             id="path46"
             style="fill:#cccccc;fill-opacity:1;fill-rule:nonzero;stroke:none"
             d="M 0,0 V -112 H -48 V 10.6 C -20.845,5.956 0,0 0,0" /></g><g
           transform="translate(24,176)"
           id="g48"><path
             id="path50"
             style="fill:#cccccc;fill-opacity:1;fill-rule:nonzero;stroke:none"
             d="M 0,0 V -112 H 48 V 10.6 C 20.845,5.956 0,0 0,0" /></g></g></g></g></svg>
